src/lib/packages/icons/src/assets/line/backpack.svg

<svg width="24" height="24" viewBox="0 0 24 24" fill="none" xmlns="http://www.w3.org/2000/svg">
<path d="M13.75 10C13.75 10.414 13.414 10.75 13 10.75H11C10.586 10.75 10.25 10.414 10.25 10C10.25 9.586 10.586 9.25 11 9.25H13C13.414 9.25 13.75 9.586 13.75 10ZM21.75 14V18C21.75 19.08 21.079 19.75 20 19.75H19.436C18.915 21.046 17.746 21.75 16 21.75H8C6.254 21.75 5.08396 21.046 4.56396 19.75H4C2.921 19.75 2.25 19.08 2.25 18V14C2.25 12.92 2.921 12.25 4 12.25H4.25V11C4.25 8.169 5.831 6.12701 8.302 5.48401C8.556 3.66101 10.109 2.25 12 2.25C13.891 2.25 15.444 3.66201 15.698 5.48401C18.17 6.12701 19.75 8.169 19.75 11V12.25H20C21.079 12.25 21.75 12.92 21.75 14ZM9.88501 5.26001C9.92501 5.26001 9.96 5.25 10 5.25H14C14.04 5.25 14.075 5.25901 14.115 5.26001C13.807 4.38401 12.98 3.75 12 3.75C11.02 3.75 10.193 4.38401 9.88501 5.26001ZM4.26807 18.25C4.26507 18.165 4.25 18.088 4.25 18V13.75H4C3.847 13.75 3.7859 13.777 3.7749 13.783C3.7769 13.786 3.75 13.846 3.75 14V18C3.75 18.154 3.77696 18.214 3.78296 18.225C3.78996 18.225 3.851 18.25 4 18.25H4.26807ZM15.25 14.5C15.25 13.911 15.089 13.75 14.5 13.75H9.5C8.911 13.75 8.75 13.911 8.75 14.5V20.25H15.25V14.5ZM18.25 18V11C18.25 8.418 16.582 6.75 14 6.75H10C7.418 6.75 5.75 8.418 5.75 11V18C5.75 19.295 6.214 19.973 7.25 20.176V14.5C7.25 13.091 8.091 12.25 9.5 12.25H14.5C15.909 12.25 16.75 13.091 16.75 14.5V20.176C17.786 19.973 18.25 19.295 18.25 18ZM20.25 14C20.25 13.846 20.223 13.786 20.217 13.775C20.21 13.775 20.149 13.75 20 13.75H19.75V18C19.75 18.088 19.7349 18.165 19.7319 18.25H20C20.153 18.25 20.2141 18.223 20.2251 18.217C20.2231 18.214 20.25 18.154 20.25 18V14Z" fill="currentColor"/>
</svg>

<svg xmlns="http://www.w3.org/2000/svg" width="24" height="24" fill="none"><path fill="currentColor" d="M13.75 10a.75.75 0 0 1-.75.75h-2a.75.75 0 0 1 0-1.5h2a.75.75 0 0 1 .75.75Zm8 4v4c0 1.08-.671 1.75-1.75 1.75h-.564c-.521 1.296-1.69 2-3.436 2H8c-1.746 0-2.916-.704-3.436-2H4c-1.079 0-1.75-.67-1.75-1.75v-4c0-1.08.671-1.75 1.75-1.75h.25V11c0-2.831 1.581-4.873 4.052-5.516C8.556 3.661 10.109 2.25 12 2.25s3.444 1.412 3.698 3.234C18.17 6.127 19.75 8.169 19.75 11v1.25H20c1.079 0 1.75.67 1.75 1.75ZM9.885 5.26c.04 0 .075-.01.115-.01h4c.04 0 .075.009.115.01A2.247 2.247 0 0 0 12 3.75c-.98 0-1.807.634-2.115 1.51ZM4.268 18.25c-.003-.085-.018-.162-.018-.25v-4.25H4a.52.52 0 0 0-.225.033c.002.003-.025.063-.025.217v4c0 .154.027.214.033.225.007 0 .068.025.217.025h.268ZM15.25 14.5c0-.589-.161-.75-.75-.75h-5c-.589 0-.75.161-.75.75v5.75h6.5V14.5Zm3 3.5v-7c0-2.582-1.668-4.25-4.25-4.25h-4c-2.582 0-4.25 1.668-4.25 4.25v7c0 1.295.464 1.973 1.5 2.176V14.5c0-1.409.841-2.25 2.25-2.25h5c1.409 0 2.25.841 2.25 2.25v5.676c1.036-.203 1.5-.881 1.5-2.176Zm2-4a.515.515 0 0 0-.033-.225c-.007 0-.068-.025-.217-.025h-.25V18c0 .088-.015.165-.018.25H20a.52.52 0 0 0 .225-.033c-.002-.003.025-.063.025-.217v-4Z"/></svg>
